build/Karasa-Jaga/scalable/actions/image-invert-symbolic.svg

<svg height="16" width="16" xmlns="http://www.w3.org/2000/svg"><g fill="#bebebe"><path d="m11.5625 4.46875-7.0625 7.0625c.904822.904822 2.1505382 1.46875 3.53125 1.46875 2.761424 0 5-2.238576 5-5 0-1.3807118-.563928-2.626428-1.46875-3.53125z"/><path d="m1.03125 1v14l3.46875-3.46875c-.904822-.904822-1.46875-2.150538-1.46875-3.53125 0-2.7614237 2.2385763-5 5-5 1.3807119 0 2.626428.563928 3.53125 1.46875l3.46875-3.46875z"/></g></svg>

<?xml version="1.0" encoding="UTF-8" standalone="no"?>
<!-- Created with Inkscape (http://www.inkscape.org/) -->

<svg
   xmlns:dc="http://purl.org/dc/elements/1.1/"
   xmlns:cc="http://creativecommons.org/ns#"
   xmlns:rdf="http://www.w3.org/1999/02/22-rdf-syntax-ns#"
   xmlns:svg="http://www.w3.org/2000/svg"
   xmlns="http://www.w3.org/2000/svg"
   xmlns:sodipodi="http://sodipodi.sourceforge.net/DTD/sodipodi-0.dtd"
   xmlns:inkscape="http://www.inkscape.org/namespaces/inkscape"
   width="16"
   height="16"
   id="svg2"
   version="1.1"
   inkscape:version="0.48.4 r9939"
   sodipodi:docname="image-invert-symbolic.svg">
  <defs
     id="defs4">
    <linearGradient
       id="linearGradient3946">
      <stop
         id="stop3948"
         offset="0"
         style="stop-color:#000000;stop-opacity:0.74698794;" />
      <stop
         id="stop3950"
         offset="1"
         style="stop-color:#000000;stop-opacity:0.02409638;" />
    </linearGradient>
    <linearGradient
       id="linearGradient3830-9">
      <stop
         style="stop-color:#000000;stop-opacity:0.74698794;"
         offset="0"
         id="stop3832-7" />
      <stop
         style="stop-color:#000000;stop-opacity:0.02409638;"
         offset="1"
         id="stop3834-5" />
    </linearGradient>
    <linearGradient
       id="linearGradient3984">
      <stop
         style="stop-color:#f4deba;stop-opacity:1;"
         offset="0"
         id="stop3986" />
      <stop
         style="stop-color:#de9625;stop-opacity:0;"
         offset="1"
         id="stop3988" />
    </linearGradient>
  </defs>
  <sodipodi:namedview
     id="base"
     pagecolor="#555753"
     bordercolor="#666666"
     borderopacity="1.0"
     inkscape:pageopacity="1"
     inkscape:pageshadow="2"
     inkscape:zoom="22.627418"
     inkscape:cx="0.43090001"
     inkscape:cy="8.9668386"
     inkscape:document-units="px"
     inkscape:current-layer="layer1"
     showgrid="true"
     inkscape:snap-grids="true"
     inkscape:window-width="1920"
     inkscape:window-height="1134"
     inkscape:window-x="0"
     inkscape:window-y="27"
     inkscape:window-maximized="1"
     showborder="true"
     fit-margin-top="0"
     fit-margin-right="0"
     fit-margin-left="0"
     fit-margin-bottom="0"
     showguides="true"
     inkscape:guide-bbox="true">
    <inkscape:grid
       type="xygrid"
       id="grid7044"
       empspacing="8"
       visible="true"
       enabled="true"
       snapvisiblegridlinesonly="true"
       originx="-31.97559px"
       originy="-816.00002px" />
  </sodipodi:namedview>
  <metadata
     id="metadata7">
    <rdf:RDF>
      <cc:Work
         rdf:about="">
        <dc:format>image/svg+xml</dc:format>
        <dc:type
           rdf:resource="http://purl.org/dc/dcmitype/StillImage" />
        <dc:title />
      </cc:Work>
    </rdf:RDF>
  </metadata>
  <g
     inkscape:label="Livello 1"
     inkscape:groupmode="layer"
     id="layer1"
     transform="translate(-31.97559,-220.36218)">
    <path
       style="fill:#bebebe;fill-opacity:1;stroke:none"
       d="M 11.5625 4.46875 L 4.5 11.53125 C 5.404822 12.436072 6.6505382 13 8.03125 13 C 10.792674 13 13.03125 10.761424 13.03125 8 C 13.03125 6.6192882 12.467322 5.373572 11.5625 4.46875 z "
       transform="translate(31.97559,220.36218)"
       id="path10875" />
    <path
       style="fill:#bebebe;stroke:none;stroke-width:1px;stroke-linecap:butt;stroke-linejoin:miter;stroke-opacity:1;fill-opacity:1"
       d="M 1.03125 1 L 1.03125 15 L 4.5 11.53125 C 3.595178 10.626428 3.03125 9.380712 3.03125 8 C 3.03125 5.2385763 5.2698263 3 8.03125 3 C 9.4119619 3 10.657678 3.563928 11.5625 4.46875 L 15.03125 1 L 1.03125 1 z "
       transform="translate(31.97559,220.36218)"
       id="path10337" />
  </g>
</svg>
